img/ic_watchlist.svg

<svg width="24" height="24" fill="none" xmlns="http://www.w3.org/2000/svg"><path d="M15 7v12.97l-4.21-1.81-.79-.34-.79.34L5 19.97V7h10zm4-6H8.99C7.89 1 7 1.9 7 3h10c1.1 0 2 .9 2 2v13l2 1V3c0-1.1-.9-2-2-2zm-4 4H5c-1.1 0-2 .9-2 2v16l7-3 7 3V7c0-1.1-.9-2-2-2z" fill="#fff"/></svg>

<svg width="24" height="24" viewBox="0 0 24 24" fill="none" xmlns="http://www.w3.org/2000/svg">
<path d="M15 7V19.97L10.79 18.16L10 17.82L9.21 18.16L5 19.97V7H15ZM19 1H8.99C7.89 1 7 1.9 7 3H17C18.1 3 19 3.9 19 5V18L21 19V3C21 1.9 20.1 1 19 1ZM15 5H5C3.9 5 3 5.9 3 7V23L10 20L17 23V7C17 5.9 16.1 5 15 5Z" fill="white"/>
</svg>
